X:30
T:Vivre (melody)
I:last changed 26/2/2016
F:http://www.campin.me.uk/Music/Edinbal.abc
C:Stephane Delicq
M:5/4
L:1/4
Q:3/4=100
P:ABACDAB
K:AMin
P:A
"Am"eez "Am/E"dd|"Am"ccz "Am/E"BB   |"Am"AAz "G  "GG|"C "E3-      E2:|
P:B
"F" a3  "C/G "gg|"F "a3 "C/G  "gg   |"F" a3  "C/G"gg|"C "e3-      e2 |
"Dm"f2e       fe|"Am"dc2       cd   |"E" cB2 "E/B"Bc|"Am"A3-      A2|]
P:C
"Am"c2d "E   "cB|"Am"A2A "E   "BB   |"Am"c2c "E  "BB|"Am"c3 "Am/E"z2:|
P:D
"Dm"d2d "Am  "cc|"Dm"d2d "Am  "cc   |"Dm"d2d "E  "BB|"Am"c3 "Am/E"z2 |
"Dm"d2c "Dm/A"dc|"Am"BA2 "Am/E"A/B/c|"E"^G3- "E/B"G2|"Am"A3       z2||

